X:1
T:Title
L:1/8
M:4/4
I:linebreak $
K:G
V:1 treble nm="Voice"
V:1
"Am" eAAG A2 Bd | eaaf"G" gedg |"Am" eAcA eAcA |"G" BGGA Bdeg |"Am" eAAG A2 Bd | eaaf"G" gedB | %6
"Am7" cBcd eged | cA"G"BG"Am" A2 Bd ::"Am7" eaag abag | eaag"G" egdg | egdg egdg | %11
"Am" eaaf"G" gedg |"Am7" eaag a2 ag | eaaf"G" gedB |"Am" c2 cd e2 ed | cA"G"BG"Am" A2 Bd :| %16
